src/22/actions/document-save.svg

<svg xmlns="http://www.w3.org/2000/svg" viewBox="0 0 22 22">
  <defs id="defs3051">
    <style type="text/css" id="current-color-scheme">
      .ColorScheme-Text {
        color:#5d656b;
      }
      </style>
  </defs>
 <path 
    style="fill:currentColor;fill-opacity:1;stroke:none" 
    d="M 3 2.9980469 L 3 3 L 3 4 L 3 19 L 4 19 L 19 19 L 19 18 L 19 7 L 19 6.3007812 L 18.992188 6.3007812 L 19 6.2910156 L 15.707031 2.9980469 L 15.699219 3.0078125 L 15.699219 2.9980469 L 15 2.9980469 L 3 2.9980469 z M 4 4 L 7 4 L 7 8 L 7 9 L 15 9 L 15 8 L 15 4 L 15.292969 4 L 18 6.7070312 L 18 7 L 18 18 L 16 18 L 16 11 L 15 11 L 7 11 L 6 11 L 6 18 L 4 18 L 4 4 z M 8 4 L 11.900391 4 L 11.900391 8 L 8 8 L 8 4 z M 7 12 L 15 12 L 15 18 L 7 18 L 7 12 z "
    class="ColorScheme-Text"
    />  
</svg>

<svg xmlns="http://www.w3.org/2000/svg" viewBox="0 0 22 22"><path d="M3 2.998V19h16V6.3h-.008L19 6.292l-3.293-3.293-.008.01v-.01H3zM4 4h3v5h8V4h.293L18 6.707V18h-2v-7H6v7H4V4zm4 0h3.9v4H8V4zm-1 8h8v6H7v-6z" fill="currentColor" color="#5d656b"/></svg>
